load_samples "ambi_"
define :ambient do |index|
  sample "ambi_", index, rate: 0.5, attack: 10.0, amp:0.75
  sleep (sample_duration "ambi_", index)
end

live_loop :ambient_loop do
  index = 3
  ambient index
end